X: 34
T: Dabianzi yirao li heotao
%%abc-version 2.0
%%abcx-abcm2ps-target-version 5.9.1 (29 Sep 2008)
%%abc-creator hum2abc beta
%%abcx-conversion-date 2013/10/02 07:52:29
%%abc-edited-by Helmut Schaffrath
%%humdrum-veritas 475074876
%%humdrum-veritas-data 1274057130
%%continueall 1
%%barnumbers 0
L: 1/8
M: 2/4
K: E
B2g3/ b/ [I:setbarnb 1]| 
e e c B | 
e G F E/ C/ | 
F4 | 
B2g3/ b/ | 
e e c B | 
e G F E/ C/ | 
B,4 |]  



